icon-svg/bulbs-spot.svg

<?xml version="1.0" encoding="UTF-8"?>
<svg width="32px" height="32px" viewBox="0 0 32 32" version="1.1" fill="#44739e" xmlns="http://www.w3.org/2000/svg" xmlns:xlink="http://www.w3.org/1999/xlink">
            <path d="M16,5 C20.97,5 25,6.188 25,7.653 C25,9.117 20.97,10.306 16,10.306 C11.03,10.306 7,9.117 7,7.653 C7,7.473 7.06,7.292 7.18,7.122 C8.01,5.912 11.65,5 16,5 Z M8.2148,10.0869 C10.3828,11.0069 13.6888,11.3059 15.9998,11.3059 C18.3118,11.3059 21.6168,11.0069 23.7848,10.0869 C23.4568,12.0059 22.6478,14.6319 20.2238,16.3809 C20.0208,16.5679 19.9998,16.8809 19.9998,17.5059 L19.9998,21.1919 C19.9998,21.6689 19.8468,22.1379 19.5338,22.4919 C19.0338,23.0589 17.9588,23.4919 15.9998,23.4919 C14.0408,23.4919 12.9658,23.0589 12.4658,22.4919 C12.1528,22.1379 11.9998,21.6689 11.9998,21.1919 L11.9998,17.5059 C11.9998,16.8809 11.9798,16.5679 11.7768,16.3809 C9.3528,14.6319 8.5428,12.0059 8.2148,10.0869 Z M17,26 L17,24.458 C17.894,24.375 18.548,24.184 19,23.925 L19,26 C19,26.55 18.55,27 18,27 C17.45,27 17,26.55 17,26 Z M13,26 L13,23.925 C13.452,24.184 14.106,24.375 15,24.458 L15,26 C15,26.55 14.55,27 14,27 C13.45,27 13,26.55 13,26 Z"></path>
</svg>

<svg xmlns="http://www.w3.org/2000/svg" fill="#44739e" viewBox="0 0 24 24"><path d="M16 5c4.97 0 9 1.188 9 2.653 0 1.464-4.03 2.653-9 2.653S7 9.117 7 7.653c0-.18.06-.361.18-.531C8.01 5.912 11.65 5 16 5m-7.7852 5.0869c2.168.92 5.474 1.219 7.785 1.219 2.312 0 5.617-.299 7.785-1.219-.328 1.919-1.137 4.545-3.561 6.294-.203.187-.224.5-.224 1.125v3.686c0 .477-.153.946-.466 1.3-.5.567-1.575 1-3.534 1s-3.034-.433-3.534-1c-.313-.354-.466-.823-.466-1.3v-3.686c0-.625-.02-.938-.223-1.125-2.424-1.749-3.234-4.375-3.562-6.294M17 26v-1.542c.894-.083 1.548-.274 2-.533V26c0 .55-.45 1-1 1s-1-.45-1-1m-4 0v-2.075c.452.259 1.106.45 2 .533V26c0 .55-.45 1-1 1s-1-.45-1-1"/></svg>
